public/ArkXpence.svg

<?xml version="1.0" encoding="utf-8"?>
<!-- Generator: Adobe Illustrator 28.3.0, SVG Export Plug-In . SVG Version: 6.00 Build 0)  -->
<svg version="1.1" id="Layer_1" xmlns="http://www.w3.org/2000/svg" xmlns:xlink="http://www.w3.org/1999/xlink" x="0px" y="0px"
	 viewBox="0 0 1000 500" style="enable-background:new 0 0 1000 500;" xml:space="preserve">
<style type="text/css">
	.st0{fill:#F36A3D;}
	.st1{fill:none;}
</style>
<path class="st0" d="M209.8,299.2L255,190.2h23.3l45.7,109.1h-24.8L261.9,203h9.5l-37.4,96.3H209.8z M232.6,275.9l6-19.2h52.7
	l6.1,19.2H232.6z"/>
<path class="st0" d="M327.7,299.2v-83.8h21.7v23.8l-3.1-7c2.3-5.9,6.1-10.4,11.2-13.5c5.1-3.1,11.4-4.6,18.8-4.6v22.6
	c-0.9-0.2-1.7-0.4-2.5-0.5c-0.8-0.1-1.6-0.2-2.4-0.2c-6.4,0-11.5,1.9-15.3,5.8c-3.8,3.8-5.7,9.8-5.7,17.8v39.6H327.7z"/>
<path class="st0" d="M385.1,299.2V183.7h22.7v115.6H385.1z M403.9,282.1l0.6-29.8l36.6-36.9h27.1L433,253.6L421.2,264L403.9,282.1z
	 M443.5,299.2L417,264l14.3-18.9l39.8,54.1H443.5z"/>
<path class="st0" d="M465.9,299.2l43.7-64.7V253l-41.8-62.8h26.7l29,43.6l-11.4,0.3l28.8-43.9h25.5l-41.7,61.7v-18.1l44.1,65.4
	h-27.2l-30-46.3h10.8l-29.6,46.3H465.9z"/>
<path class="st0" d="M574.4,329.5v-114h21.7v17.1l-0.4,24.9l1.5,24.8v47.2H574.4z M620.6,300.5c-6.5,0-12.2-1.6-17.2-4.7
	c-5-3.1-8.8-7.9-11.6-14.3c-2.8-6.4-4.2-14.5-4.2-24.2c0-9.9,1.3-18,3.9-24.3c2.6-6.3,6.4-11.1,11.4-14.2c5-3.1,10.9-4.7,17.6-4.7
	c7.5,0,14.1,1.8,20,5.4c5.9,3.6,10.5,8.6,14,15c3.4,6.4,5.2,14,5.2,22.7c0,8.8-1.7,16.4-5.2,22.8c-3.4,6.4-8.1,11.4-14,15
	C634.8,298.7,628.1,300.5,620.6,300.5z M616.8,280.6c3.8,0,7.2-0.9,10.1-2.8c3-1.9,5.3-4.5,7.1-8c1.8-3.5,2.7-7.6,2.7-12.4
	c0-4.9-0.9-9-2.7-12.5c-1.8-3.4-4.2-6-7.1-7.9c-3-1.8-6.3-2.7-10.1-2.7c-3.8,0-7.2,0.9-10.2,2.7c-3,1.8-5.4,4.4-7.2,7.9
	c-1.8,3.4-2.7,7.6-2.7,12.5c0,4.8,0.9,8.9,2.7,12.4c1.8,3.5,4.2,6.2,7.2,8C609.6,279.6,613,280.6,616.8,280.6z"/>
<path class="st0" d="M708.4,300.5c-8.9,0-16.7-1.9-23.4-5.6c-6.7-3.7-11.9-8.9-15.6-15.3c-3.7-6.5-5.5-13.9-5.5-22.2
	c0-8.3,1.8-15.7,5.3-22.3c3.5-6.5,8.5-11.7,14.9-15.3c6.4-3.7,13.5-5.5,21.5-5.5c7.7,0,14.6,1.8,20.8,5.3c6.2,3.5,11,8.5,14.6,15
	c3.6,6.4,5.4,14.2,5.4,23.2c0,0.9,0,2-0.1,3.2c-0.1,1.2-0.2,2.3-0.3,3.3h-63.6V250h51.7l-8.9,4.2c0.1-4.4-0.7-8.2-2.3-11.4
	c-1.7-3.2-3.9-5.7-6.8-7.6c-2.9-1.8-6.3-2.7-10.2-2.7c-3.9,0-7.3,0.9-10.3,2.7c-3,1.8-5.3,4.4-6.9,7.6c-1.7,3.3-2.5,7.1-2.5,11.6
	v3.7c0,4.7,1,8.7,2.9,12.2c1.9,3.4,4.6,6.1,8,7.9c3.4,1.8,7.5,2.7,12.2,2.7c4.1,0,7.7-0.7,10.9-2c3.2-1.3,6-3.4,8.7-6.1l12.1,14
	c-3.6,4.4-8.1,7.7-13.5,10C721.8,299.3,715.5,300.5,708.4,300.5z"/>
<path class="st0" d="M803.7,214.2c6.2,0,11.8,1.3,16.7,4c4.9,2.6,8.8,6.7,11.6,12.2c2.8,5.5,4.2,12.4,4.2,21v48h-22.7V255
	c0-6.8-1.4-11.7-4.2-15c-2.8-3.2-6.7-4.8-11.7-4.8c-3.6,0-6.8,0.8-9.7,2.5c-2.9,1.7-5.1,4.1-6.7,7.3c-1.6,3.2-2.4,7.5-2.4,12.8v41.4
	h-22.7v-83.8h21.7v23.2l-4.1-7c2.8-5.6,6.8-9.9,12.1-12.9C791,215.7,797,214.2,803.7,214.2z"/>
<path class="st0" d="M877.7,300.5c-6.7,0-13.1-0.9-19.2-2.6c-6.1-1.7-11-3.9-14.7-6.5l7.4-17.3c3.7,2.3,8,4.2,12.9,5.7
	c4.9,1.5,9.7,2.3,14.5,2.3c5.2,0,9-0.7,11.1-2c2.2-1.3,3.3-3.2,3.3-5.6c0-2-0.9-3.5-2.5-4.4c-1.7-1-3.9-1.7-6.7-2.3
	c-2.8-0.5-5.9-1-9.2-1.6c-3.4-0.5-6.8-1.2-10.1-2.2c-3.3-0.9-6.5-2.3-9.3-4c-2.9-1.7-5.1-4.1-6.8-7.1c-1.7-3-2.5-6.9-2.5-11.7
	c0-5.3,1.5-10,4.4-14.1c2.9-4.1,7-7.3,12.4-9.6c5.3-2.3,11.8-3.4,19.4-3.4c5.4,0,10.9,0.7,16.4,1.9c5.5,1.3,10.1,3.1,13.9,5.4
	l-7.7,17.3c-3.7-2.3-7.5-3.9-11.3-4.8c-3.8-0.9-7.5-1.4-11-1.4c-5.2,0-9,0.7-11.4,2.2c-2.3,1.5-3.5,3.3-3.5,5.6
	c0,2.1,0.9,3.7,2.6,4.8c1.7,1.1,4,1.9,6.8,2.4c2.8,0.5,5.9,1,9.3,1.6c3.4,0.5,6.7,1.2,10,2.2c3.3,0.9,6.4,2.3,9.2,4
	c2.9,1.7,5.1,4.1,6.8,7.1c1.7,3,2.5,6.9,2.5,11.7c0,5.1-1.5,9.6-4.4,13.6c-2.9,4-7.1,7.1-12.6,9.4
	C892.2,299.4,885.5,300.5,877.7,300.5z"/>
<path class="st0" d="M962.1,300.5c-8.9,0-16.7-1.9-23.4-5.6s-11.9-8.9-15.6-15.3c-3.7-6.5-5.5-13.9-5.5-22.2
	c0-8.3,1.8-15.7,5.3-22.3c3.5-6.5,8.5-11.7,14.9-15.3c6.4-3.7,13.5-5.5,21.5-5.5c7.7,0,14.6,1.8,20.8,5.3c6.2,3.5,11,8.5,14.6,15
	c3.6,6.4,5.4,14.2,5.4,23.2c0,0.9,0,2-0.1,3.2c-0.1,1.2-0.2,2.3-0.3,3.3h-63.6V250h51.7l-8.9,4.2c0.1-4.4-0.7-8.2-2.3-11.4
	c-1.7-3.2-3.9-5.7-6.8-7.6c-2.9-1.8-6.3-2.7-10.2-2.7c-3.9,0-7.3,0.9-10.3,2.7c-3,1.8-5.3,4.4-6.9,7.6c-1.7,3.3-2.5,7.1-2.5,11.6
	v3.7c0,4.7,1,8.7,2.9,12.2c1.9,3.4,4.6,6.1,8,7.9c3.4,1.8,7.5,2.7,12.2,2.7c4.1,0,7.7-0.7,10.9-2c3.2-1.3,6-3.4,8.7-6.1l12.1,14
	c-3.6,4.4-8.1,7.7-13.5,10C975.5,299.3,969.2,300.5,962.1,300.5z"/>
<line class="st1" x1="5.7" y1="227.1" x2="5.2" y2="226.9"/>
<path class="st0" d="M182.4,220.4c-0.4-3.4-0.9-6.7-1.7-10c-0.2-0.8-0.4-1.7-0.6-2.5c-0.7-2.6-1.5-5.2-2.3-7.7c0-0.1,0-0.1-0.1-0.2
	c-1.2-3.4-2.6-6.6-4.1-9.8c-1.8-3.6-3.8-7.1-6-10.4c-2.3-3.5-4.9-6.9-7.7-10c-3.3-3.7-7-7.2-10.9-10.4c-4.7-3.8-9.7-7.1-15.1-9.9
	c-11.7-6.2-25-9.8-39.1-10.4h0l-6.7,0h0c-14.1,0.5-27.3,4.2-39.1,10.4c-5.4,2.8-10.4,6.1-15.1,9.9c-3.9,3.2-7.5,6.6-10.9,10.4
	c-2.8,3.1-5.4,6.5-7.7,10c-2.2,3.3-4.2,6.8-6,10.4c-1.6,3.2-2.9,6.4-4.1,9.8c0,0,0,0.1,0,0.1C4,203.6,3,207,2.2,210.5
	c-0.7,3.3-1.3,6.6-1.7,10c-0.4,3.3-0.6,6.7-0.6,10.2c0,0.1,0,0.1,0,0.2c0,3.5,0.2,7,0.6,10.4c0.4,3.5,1,7,1.8,10.4
	c0.8,3.4,1.8,6.8,3,10c1.2,3.3,2.6,6.6,4.1,9.7c1.8,3.6,3.8,7.1,6.1,10.4c2.5,3.7,5.2,7.1,8.1,10.4c3.3,3.6,6.8,7,10.6,10
	c5,4,10.4,7.5,16.2,10.4h0c12.3,6.2,26.2,9.7,41,9.7c14.7,0,28.7-3.5,41-9.7h0c5.8-2.9,11.2-6.4,16.2-10.4c3.8-3.1,7.4-6.4,10.6-10
	c2.9-3.3,5.7-6.7,8.1-10.4c2.2-3.3,4.2-6.8,6-10.4c1.6-3.2,3-6.4,4.2-9.8c1.2-3.3,2.2-6.6,3-10c0.8-3.4,1.4-6.8,1.8-10.4
	c0.4-3.4,0.6-6.9,0.6-10.4v-0.1C183,227.2,182.8,223.8,182.4,220.4z M34.3,273.3c-0.8,0.4-1.9-0.9-1.5-1.7l3.5-6.5l5.5-10l5.7-10.4
	l5.7-10.4l3.3-6.1l2.3-4.3l5.5-10l5.7-10.4l5.3-9.8l5.7-10.4l3.5-6.4l0,0l3.3-6l2.2-3.9c0.9-1.8,3.4-1.8,4.3-0.1l3.4,6.3l5.5,10
	l5.7,10.4l5.3,9.8l5.7,10.4l5.5,10l1.2,2.1c0.6,1.2,0.2,2.6-1,3.2l-10.5,5.1l-21.5,10.4l-1.4,0.7l-20,9.7l-20.7,10 M132.7,265.1
	l-20.7-10l-7.7-3.7c-1.4-0.7-1.4-2.7,0-3.4l6.8-3.2h0l18-8.6c1.2-0.6,2.6-0.1,3.2,1l4.1,7.6l5.7,10.4l5.5,10l2.4,4.3
	c0.9,1.7-0.9,3.6-2.6,2.8L132.7,265.1z"/>
<line class="st1" x1="308.4" y1="178" x2="308.3" y2="178"/>
<line class="st1" x1="117" y1="178.7" x2="116.9" y2="178.6"/>
<path class="st1" d="M258.1,215.7l4.1,7.5l6.2,11.4l6,11"/>
<line class="st1" x1="311.2" y1="186.4" x2="310.9" y2="186.6"/>
</svg>

<svg width="1000" height="500" viewBox="0 0 1000 500" fill="none" xmlns="http://www.w3.org/2000/svg">
<g clip-path="url(#clip0_39_18)">
<path d="M209.8 299.2L255 190.2H278.3L324 299.3H299.2L261.9 203H271.4L234 299.3H209.8V299.2ZM232.6 275.9L238.6 256.7H291.3L297.4 275.9H232.6Z" fill="white"/>
<path d="M327.7 299.2V215.4H349.4V239.2L346.3 232.2C348.6 226.3 352.4 221.8 357.5 218.7C362.6 215.6 368.9 214.1 376.3 214.1V236.7C375.4 236.5 374.6 236.3 373.8 236.2C373 236.1 372.2 236 371.4 236C365 236 359.9 237.9 356.1 241.8C352.3 245.6 350.4 251.6 350.4 259.6V299.2H327.7Z" fill="white"/>
<path d="M385.1 299.2V183.7H407.8V299.3H385.1V299.2ZM403.9 282.1L404.5 252.3L441.1 215.4H468.2L433 253.6L421.2 264L403.9 282.1ZM443.5 299.2L417 264L431.3 245.1L471.1 299.2H443.5Z" fill="white"/>
<path d="M465.9 299.2L509.6 234.5V253L467.8 190.2H494.5L523.5 233.8L512.1 234.1L540.9 190.2H566.4L524.7 251.9V233.8L568.8 299.2H541.6L511.6 252.9H522.4L492.8 299.2H465.9Z" fill="white"/>
<path d="M574.4 329.5V215.5H596.1V232.6L595.7 257.5L597.2 282.3V329.5H574.4ZM620.6 300.5C614.1 300.5 608.4 298.9 603.4 295.8C598.4 292.7 594.6 287.9 591.8 281.5C589 275.1 587.6 267 587.6 257.3C587.6 247.4 588.9 239.3 591.5 233C594.1 226.7 597.9 221.9 602.9 218.8C607.9 215.7 613.8 214.1 620.5 214.1C628 214.1 634.6 215.9 640.5 219.5C646.4 223.1 651 228.1 654.5 234.5C657.9 240.9 659.7 248.5 659.7 257.2C659.7 266 658 273.6 654.5 280C651.1 286.4 646.4 291.4 640.5 295C634.8 298.7 628.1 300.5 620.6 300.5ZM616.8 280.6C620.6 280.6 624 279.7 626.9 277.8C629.9 275.9 632.2 273.3 634 269.8C635.8 266.3 636.7 262.2 636.7 257.4C636.7 252.5 635.8 248.4 634 244.9C632.2 241.5 629.8 238.9 626.9 237C623.9 235.2 620.6 234.3 616.8 234.3C613 234.3 609.6 235.2 606.6 237C603.6 238.8 601.2 241.4 599.4 244.9C597.6 248.3 596.7 252.5 596.7 257.4C596.7 262.2 597.6 266.3 599.4 269.8C601.2 273.3 603.6 276 606.6 277.8C609.6 279.6 613 280.6 616.8 280.6Z" fill="white"/>
<path d="M708.4 300.5C699.5 300.5 691.7 298.6 685 294.9C678.3 291.2 673.1 286 669.4 279.6C665.7 273.1 663.9 265.7 663.9 257.4C663.9 249.1 665.7 241.7 669.2 235.1C672.7 228.6 677.7 223.4 684.1 219.8C690.5 216.1 697.6 214.3 705.6 214.3C713.3 214.3 720.2 216.1 726.4 219.6C732.6 223.1 737.4 228.1 741 234.6C744.6 241 746.4 248.8 746.4 257.8C746.4 258.7 746.4 259.8 746.3 261C746.2 262.2 746.1 263.3 746 264.3H682.4V250H734.1L725.2 254.2C725.3 249.8 724.5 246 722.9 242.8C721.2 239.6 719 237.1 716.1 235.2C713.2 233.4 709.8 232.5 705.9 232.5C702 232.5 698.6 233.4 695.6 235.2C692.6 237 690.3 239.6 688.7 242.8C687 246.1 686.2 249.9 686.2 254.4V258.1C686.2 262.8 687.2 266.8 689.1 270.3C691 273.7 693.7 276.4 697.1 278.2C700.5 280 704.6 280.9 709.3 280.9C713.4 280.9 717 280.2 720.2 278.9C723.4 277.6 726.2 275.5 728.9 272.8L741 286.8C737.4 291.2 732.9 294.5 727.5 296.8C721.8 299.3 715.5 300.5 708.4 300.5Z" fill="white"/>
<path d="M803.7 214.2C809.9 214.2 815.5 215.5 820.4 218.2C825.3 220.8 829.2 224.9 832 230.4C834.8 235.9 836.2 242.8 836.2 251.4V299.4H813.5V255C813.5 248.2 812.1 243.3 809.3 240C806.5 236.8 802.6 235.2 797.6 235.2C794 235.2 790.8 236 787.9 237.7C785 239.4 782.8 241.8 781.2 245C779.6 248.2 778.8 252.5 778.8 257.8V299.2H756.1V215.4H777.8V238.6L773.7 231.6C776.5 226 780.5 221.7 785.8 218.7C791 215.7 797 214.2 803.7 214.2Z" fill="white"/>
<path d="M877.7 300.5C871 300.5 864.6 299.6 858.5 297.9C852.4 296.2 847.5 294 843.8 291.4L851.2 274.1C854.9 276.4 859.2 278.3 864.1 279.8C869 281.3 873.8 282.1 878.6 282.1C883.8 282.1 887.6 281.4 889.7 280.1C891.9 278.8 893 276.9 893 274.5C893 272.5 892.1 271 890.5 270.1C888.8 269.1 886.6 268.4 883.8 267.8C881 267.3 877.9 266.8 874.6 266.2C871.2 265.7 867.8 265 864.5 264C861.2 263.1 858 261.7 855.2 260C852.3 258.3 850.1 255.9 848.4 252.9C846.7 249.9 845.9 246 845.9 241.2C845.9 235.9 847.4 231.2 850.3 227.1C853.2 223 857.3 219.8 862.7 217.5C868 215.2 874.5 214.1 882.1 214.1C887.5 214.1 893 214.8 898.5 216C904 217.3 908.6 219.1 912.4 221.4L904.7 238.7C901 236.4 897.2 234.8 893.4 233.9C889.6 233 885.9 232.5 882.4 232.5C877.2 232.5 873.4 233.2 871 234.7C868.7 236.2 867.5 238 867.5 240.3C867.5 242.4 868.4 244 870.1 245.1C871.8 246.2 874.1 247 876.9 247.5C879.7 248 882.8 248.5 886.2 249.1C889.6 249.6 892.9 250.3 896.2 251.3C899.5 252.2 902.6 253.6 905.4 255.3C908.3 257 910.5 259.4 912.2 262.4C913.9 265.4 914.7 269.3 914.7 274.1C914.7 279.2 913.2 283.7 910.3 287.7C907.4 291.7 903.2 294.8 897.7 297.1C892.2 299.4 885.5 300.5 877.7 300.5Z" fill="white"/>
<path d="M962.1 300.5C953.2 300.5 945.4 298.6 938.7 294.9C932 291.2 926.8 286 923.1 279.6C919.4 273.1 917.6 265.7 917.6 257.4C917.6 249.1 919.4 241.7 922.9 235.1C926.4 228.6 931.4 223.4 937.8 219.8C944.2 216.1 951.3 214.3 959.3 214.3C967 214.3 973.9 216.1 980.1 219.6C986.3 223.1 991.1 228.1 994.7 234.6C998.3 241 1000.1 248.8 1000.1 257.8C1000.1 258.7 1000.1 259.8 1000 261C999.9 262.2 999.8 263.3 999.7 264.3H936.1V250H987.8L978.9 254.2C979 249.8 978.2 246 976.6 242.8C974.9 239.6 972.7 237.1 969.8 235.2C966.9 233.4 963.5 232.5 959.6 232.5C955.7 232.5 952.3 233.4 949.3 235.2C946.3 237 944 239.6 942.4 242.8C940.7 246.1 939.9 249.9 939.9 254.4V258.1C939.9 262.8 940.9 266.8 942.8 270.3C944.7 273.7 947.4 276.4 950.8 278.2C954.2 280 958.3 280.9 963 280.9C967.1 280.9 970.7 280.2 973.9 278.9C977.1 277.6 979.9 275.5 982.6 272.8L994.7 286.8C991.1 291.2 986.6 294.5 981.2 296.8C975.5 299.3 969.2 300.5 962.1 300.5Z" fill="white"/>
<path d="M182.4 220.4C182 217 181.5 213.7 180.7 210.4C180.5 209.6 180.3 208.7 180.1 207.9C179.4 205.3 178.6 202.7 177.8 200.2C177.8 200.1 177.8 200.1 177.7 200C176.5 196.6 175.1 193.4 173.6 190.2C171.8 186.6 169.8 183.1 167.6 179.8C165.3 176.3 162.7 172.9 159.9 169.8C156.6 166.1 152.9 162.6 149 159.4C144.3 155.6 139.3 152.3 133.9 149.5C122.2 143.3 108.9 139.7 94.8 139.1H88.1C74 139.6 60.8 143.3 49 149.5C43.6 152.3 38.6 155.6 33.9 159.4C30 162.6 26.4 166 23 169.8C20.2 172.9 17.6 176.3 15.3 179.8C13.1 183.1 11.1 186.6 9.30002 190.2C7.70002 193.4 6.40002 196.6 5.20002 200V200.1C4.00002 203.6 3.00002 207 2.20002 210.5C1.50002 213.8 0.900024 217.1 0.500024 220.5C0.100024 223.8 -0.0999756 227.2 -0.0999756 230.7C-0.0999756 230.8 -0.0999756 230.8 -0.0999756 230.9C-0.0999756 234.4 0.100024 237.9 0.500024 241.3C0.900024 244.8 1.50002 248.3 2.30002 251.7C3.10002 255.1 4.10002 258.5 5.30002 261.7C6.50002 265 7.90002 268.3 9.40002 271.4C11.2 275 13.2 278.5 15.5 281.8C18 285.5 20.7 288.9 23.6 292.2C26.9 295.8 30.4 299.2 34.2 302.2C39.2 306.2 44.6 309.7 50.4 312.6C62.7 318.8 76.6 322.3 91.4 322.3C106.1 322.3 120.1 318.8 132.4 312.6C138.2 309.7 143.6 306.2 148.6 302.2C152.4 299.1 156 295.8 159.2 292.2C162.1 288.9 164.9 285.5 167.3 281.8C169.5 278.5 171.5 275 173.3 271.4C174.9 268.2 176.3 265 177.5 261.6C178.7 258.3 179.7 255 180.5 251.6C181.3 248.2 181.9 244.8 182.3 241.2C182.7 237.8 182.9 234.3 182.9 230.8V230.7C183 227.2 182.8 223.8 182.4 220.4ZM34.3 273.3C33.5 273.7 32.4 272.4 32.8 271.6L36.3 265.1L41.8 255.1L47.5 244.7L53.2 234.3L56.5 228.2L58.8 223.9L64.3 213.9L70 203.5L75.3 193.7L81 183.3L84.5 176.9L87.8 170.9L90 167C90.9 165.2 93.4 165.2 94.3 166.9L97.7 173.2L103.2 183.2L108.9 193.6L114.2 203.4L119.9 213.8L125.4 223.8L126.6 225.9C127.2 227.1 126.8 228.5 125.6 229.1L115.1 234.2L93.6 244.6L92.2 245.3L72.2 255L51.5 265M132.7 265.1L112 255.1L104.3 251.4C102.9 250.7 102.9 248.7 104.3 248L111.1 244.8L129.1 236.2C130.3 235.6 131.7 236.1 132.3 237.2L136.4 244.8L142.1 255.2L147.6 265.2L150 269.5C150.9 271.2 149.1 273.1 147.4 272.3L132.7 265.1Z" fill="#F36A3D"/>
<path d="M258.1 215.7L262.2 223.2L268.4 234.6L274.4 245.6" fill="white"/>
</g>
<defs>
<clipPath id="clip0_39_18">
<rect width="1000" height="500" fill="white"/>
</clipPath>
</defs>
</svg>
